X: 4
T: Put Me In The Big Chest
R: reel
M: 4/4
L: 1/8
K: Amaj
EFAB c2 af | ecBA F2 AF | EFAB c2 ca | ecBc A2 :|efec eAae | faec BABc | efec efac | ecBc A2 :|


Tune 3105	Setting 16222

